common/src/main/resources/glyphs/plugins/resharper/CoverageTree/Assembly.svg

<svg xmlns="http://www.w3.org/2000/svg" width="16" height="16" fill="#FFCA28" data-big="true" viewBox="0 0 24 24"><path d="m21.5 10.8-8.3-8.3c-.7-.7-1.7-.7-2.4 0l-8.3 8.3c-.7.7-.7 1.7 0 2.4l8.3 8.3c.7.7 1.7.7 2.4 0l8.3-8.3c.6-.7.6-1.7 0-2.4"/></svg>

<!--
  - The MIT License (MIT)
  -
  - Copyright (c) 2015-2024 Elior "Mallowigi" Boukhobza
  -
  - Permission is hereby granted, free of charge, to any person obtaining a copy
  - of this software and associated documentation files (the "Software"), to deal
  - in the Software without restriction, including without limitation the rights
  - to use, copy, modify, merge, publish, distribute, sublicense, and/or sell
  - copies of the Software, and to permit persons to whom the Software is
  - furnished to do so, subject to the following conditions:
  -
  - The above copyright notice and this permission notice shall be included in all
  - copies or substantial portions of the Software.
  -
  - THE SOFTWARE IS PROVIDED "AS IS", WITHOUT WARRANTY OF ANY KIND, EXPRESS OR
  - IMPLIED, INCLUDING BUT NOT LIMITED TO THE WARRANTIES OF MERCHANTABILITY,
  - FITNESS FOR A PARTICULAR PURPOSE AND NONINFRINGEMENT. IN NO EVENT SHALL THE
  - AUTHORS OR COPYRIGHT HOLDERS BE LIABLE FOR ANY CLAIM, DAMAGES OR OTHER
  - LIABILITY, WHETHER IN AN ACTION OF CONTRACT, TORT OR OTHERWISE, ARISING FROM,
  - OUT OF OR IN CONNECTION WITH THE SOFTWARE OR THE USE OR OTHER DEALINGS IN THE
  - SOFTWARE.
  -->


<svg data-big="true" xmlns="http://www.w3.org/2000/svg" version="1.1" width="16px" height="16px" viewBox="0 0 24 24"
     fill="#FFCA28">
  <path
    d="M21.5,10.8L13.2,2.5C12.5,1.8 11.5,1.8 10.8,2.5L2.5,10.8C1.8,11.5 1.8,12.5 2.5,13.2L10.8,21.5C11.5,22.2 12.5,22.2 13.2,21.5L21.5,13.2C22.1,12.5 22.1,11.5 21.5,10.8Z"/>
</svg>
